images/zhuyin/27.svg

<svg width="50" height="50" viewBox="0 0 50 50" fill="none" xmlns="http://www.w3.org/2000/svg">
<path d="M16 20.8438C16.125 20.8438 16.3438 20.9062 16.6562 21.0312C16.8438 21.0938 17.1328 21.125 17.5234 21.125C17.9609 21.125 18.375 21.0859 18.7656 21.0078L24.4141 20.1172L24.3438 18.4297C24.3438 17.1641 24.1875 16.25 23.875 15.6875C23.75 15.5781 23.6875 15.4922 23.6875 15.4297C23.6875 15.0391 23.9062 14.8438 24.3438 14.8438C24.6562 14.8438 25.0469 14.9219 25.5156 15.0781C26.1094 15.3438 26.4062 15.5781 26.4062 15.7812C26.4062 15.8594 26.3516 15.9453 26.2422 16.0391C26.1016 16.3828 26.0312 16.8047 26.0312 17.3047L26.0078 19.8828L30.1562 19.2266C30.7656 19.1172 31.2656 19.0078 31.6562 18.8984C31.9219 18.8203 32.1094 18.7812 32.2188 18.7812C32.4219 18.7812 32.7109 18.9219 33.0859 19.2031C33.5078 19.5625 33.7188 19.8281 33.7188 20C33.7188 20.2656 33.5 20.3984 33.0625 20.3984H32.2188C31.1094 20.4609 29.0312 20.7109 25.9844 21.1484L25.9375 25.1562C25.9375 25.9844 25.625 26.3984 25 26.3984C24.9062 26.3984 24.6953 26.2969 24.3672 26.0938C24.1016 25.9688 23.875 25.9062 23.6875 25.9062C22.9219 25.9062 22.2734 26.1562 21.7422 26.6562C21.0391 27.2812 20.6875 28.0938 20.6875 29.0938C20.6875 30.1094 21.0625 30.9688 21.8125 31.6719C22.5938 32.4531 23.7188 32.8438 25.1875 32.8438C27.1094 32.8438 28.7578 32.2109 30.1328 30.9453C30.4766 30.6016 30.7969 30.4297 31.0938 30.4297C31.2656 30.4297 31.4141 30.4844 31.5391 30.5938C31.6797 30.7031 31.75 30.8281 31.75 30.9688C31.75 31.8906 31.0703 32.7344 29.7109 33.5C28.4141 34.1875 26.9062 34.5312 25.1875 34.5312C23.4375 34.5312 21.9375 34.0312 20.6875 33.0312C19.5 31.9219 18.9062 30.6094 18.9062 29.0938C18.9062 27.9844 19.2812 26.9844 20.0312 26.0938C20.9062 25.2188 22.1875 24.7188 23.875 24.5938C24.375 24.5469 24.5938 24.1172 24.5312 23.3047L24.4609 21.4062C21.1797 21.9062 19.2891 22.2656 18.7891 22.4844C18.5234 22.6406 18.2812 22.7188 18.0625 22.7188C17.7656 22.7188 17.3125 22.5078 16.7031 22.0859C16.1094 21.6328 15.8125 21.3438 15.8125 21.2188C15.8125 20.9688 15.875 20.8438 16 20.8438Z" fill="#333333"/>
<path d="M16.6562 21.0312L16.4706 21.4955L16.4842 21.5009L16.4981 21.5056L16.6562 21.0312ZM18.7656 21.0078L18.6877 20.5139L18.6776 20.5155L18.6676 20.5175L18.7656 21.0078ZM24.4141 20.1172L24.4919 20.6111L24.9322 20.5417L24.9136 20.0964L24.4141 20.1172ZM24.3438 18.4297H23.8438V18.4401L23.8442 18.4505L24.3438 18.4297ZM23.875 15.6875L24.3121 15.4447L24.2698 15.3686L24.2043 15.3112L23.875 15.6875ZM25.5156 15.0781L25.7198 14.6217L25.6972 14.6116L25.6737 14.6038L25.5156 15.0781ZM26.2422 16.0391L25.9168 15.6594L25.8251 15.738L25.7794 15.8497L26.2422 16.0391ZM26.0312 17.3047L26.5312 17.3092V17.3047H26.0312ZM26.0078 19.8828L25.5078 19.8783L25.5025 20.469L26.0859 20.3767L26.0078 19.8828ZM30.1562 19.2266L30.2344 19.7205L30.2446 19.7187L30.1562 19.2266ZM31.6562 18.8984L31.7911 19.38L31.7973 19.3781L31.6562 18.8984ZM33.0859 19.2031L33.4102 18.8225L33.3984 18.8124L33.3859 18.8031L33.0859 19.2031ZM32.2188 20.3984V19.8984H32.2047L32.1906 19.8992L32.2188 20.3984ZM25.9844 21.1484L25.9133 20.6535L25.4894 20.7144L25.4844 21.1426L25.9844 21.1484ZM25.9375 25.1562L25.4375 25.1504V25.1562H25.9375ZM24.3672 26.0938L24.6304 25.6686L24.606 25.6535L24.5801 25.6413L24.3672 26.0938ZM21.7422 26.6562L22.0744 27.03L22.0797 27.0252L22.0849 27.0203L21.7422 26.6562ZM21.8125 31.6719L22.1661 31.3183L22.1604 31.3126L22.1545 31.3071L21.8125 31.6719ZM30.1328 30.9453L30.4714 31.3132L30.479 31.3062L30.4864 31.2989L30.1328 30.9453ZM31.5391 30.5938L31.2098 30.97L31.2207 30.9796L31.2321 30.9884L31.5391 30.5938ZM29.7109 33.5L29.9452 33.9419L29.9563 33.9357L29.7109 33.5ZM20.6875 33.0312L20.3462 33.3966L20.3602 33.4097L20.3752 33.4217L20.6875 33.0312ZM20.0312 26.0938L19.6777 25.7402L19.6626 25.7553L19.6488 25.7717L20.0312 26.0938ZM23.875 24.5938L23.9119 25.0925L23.9217 25.0916L23.875 24.5938ZM24.5312 23.3047L24.0316 23.3232L24.032 23.3331L24.0327 23.343L24.5312 23.3047ZM24.4609 21.4062L24.9606 21.3877L24.9398 20.8275L24.3856 20.912L24.4609 21.4062ZM18.7891 22.4844L18.5887 22.0263L18.5613 22.0383L18.5356 22.0534L18.7891 22.4844ZM16.7031 22.0859L16.3998 22.4834L16.409 22.4904L16.4185 22.497L16.7031 22.0859ZM16 21.3438C15.9926 21.3438 16.0256 21.3443 16.1205 21.3714C16.2077 21.3963 16.3234 21.4366 16.4706 21.4955L16.8419 20.567C16.6766 20.5009 16.5267 20.4474 16.3952 20.4099C16.2713 20.3745 16.1324 20.3438 16 20.3438V21.3438ZM16.4981 21.5056C16.7651 21.5946 17.1209 21.625 17.5234 21.625V20.625C17.1448 20.625 16.9224 20.5929 16.8144 20.5569L16.4981 21.5056ZM17.5234 21.625C17.9907 21.625 18.4378 21.5833 18.8637 21.4981L18.6676 20.5175C18.3122 20.5886 17.9312 20.625 17.5234 20.625V21.625ZM18.8435 21.5017L24.4919 20.6111L24.3362 19.6233L18.6877 20.5139L18.8435 21.5017ZM24.9136 20.0964L24.8433 18.4089L23.8442 18.4505L23.9145 20.138L24.9136 20.0964ZM24.8438 18.4297C24.8438 17.1465 24.6894 16.1239 24.3121 15.4447L23.4379 15.9303C23.6856 16.3761 23.8438 17.1817 23.8438 18.4297H24.8438ZM24.2043 15.3112C24.1816 15.2914 24.1651 15.2755 24.1537 15.2636C24.1419 15.2514 24.138 15.2459 24.1387 15.2469C24.139 15.2473 24.1491 15.2609 24.16 15.2869C24.1709 15.3128 24.1875 15.3625 24.1875 15.4297H23.1875C23.1875 15.6179 23.2757 15.7605 23.33 15.8351C23.3918 15.9201 23.469 15.9966 23.5457 16.0638L24.2043 15.3112ZM24.1875 15.4297C24.1875 15.3774 24.195 15.3535 24.1969 15.3482C24.1978 15.3458 24.1944 15.3544 24.1846 15.3632C24.1663 15.3795 24.189 15.3438 24.3438 15.3438V14.3438C24.061 14.3438 23.7556 14.4056 23.5186 14.6173C23.2707 14.8385 23.1875 15.1417 23.1875 15.4297H24.1875ZM24.3438 15.3438C24.5806 15.3438 24.9137 15.4045 25.3575 15.5525L25.6737 14.6038C25.18 14.4392 24.7319 14.3438 24.3438 14.3438V15.3438ZM25.3114 15.5345C25.5935 15.6607 25.7728 15.7659 25.8738 15.8456C25.9236 15.8849 25.9379 15.9053 25.9368 15.9038C25.9345 15.9004 25.9062 15.8568 25.9062 15.7812H26.9062C26.9062 15.4357 26.6654 15.1965 26.4934 15.0607C26.2975 14.906 26.0315 14.7612 25.7198 14.6217L25.3114 15.5345ZM25.9062 15.7812C25.9062 15.7003 25.9349 15.6492 25.9434 15.6359C25.951 15.6239 25.9482 15.6325 25.9168 15.6594L26.5676 16.4187C26.7013 16.3041 26.9062 16.0899 26.9062 15.7812H25.9062ZM25.7794 15.8497C25.6073 16.2705 25.5312 16.7609 25.5312 17.3047H26.5312C26.5312 16.8484 26.5958 16.4951 26.705 16.2284L25.7794 15.8497ZM25.5313 17.3001L25.5078 19.8783L26.5078 19.8874L26.5312 17.3092L25.5313 17.3001ZM26.0859 20.3767L30.2344 19.7204L30.0781 18.7327L25.9297 19.389L26.0859 20.3767ZM30.2446 19.7187C30.8624 19.6078 31.3794 19.4952 31.7911 19.3799L31.5214 18.417C31.1519 18.5204 30.6689 18.6266 30.0679 18.7344L30.2446 19.7187ZM31.7973 19.3781C31.9224 19.3413 32.0218 19.3159 32.0981 19.3C32.1359 19.2921 32.1653 19.2872 32.1873 19.2843C32.2101 19.2813 32.2195 19.2812 32.2188 19.2812V18.2812C32.0287 18.2812 31.7776 18.3416 31.5152 18.4188L31.7973 19.3781ZM32.2188 19.2812C32.213 19.2812 32.2573 19.2819 32.3692 19.3363C32.4753 19.388 32.6134 19.4738 32.7859 19.6031L33.3859 18.8031C33.1834 18.6512 32.9895 18.5261 32.8066 18.4371C32.6295 18.3509 32.4276 18.2812 32.2188 18.2812V19.2812ZM32.7617 19.5837C32.9614 19.7538 33.0922 19.8862 33.169 19.9828C33.207 20.0307 33.2235 20.0595 33.2288 20.0707C33.2351 20.0837 33.2188 20.0567 33.2188 20H34.2188C34.2188 19.7341 34.0699 19.5092 33.9521 19.3609C33.8179 19.192 33.6324 19.0118 33.4102 18.8225L32.7617 19.5837ZM33.2188 20C33.2188 19.9965 33.22 19.9692 33.2394 19.9337C33.2594 19.8973 33.2846 19.8779 33.2952 19.8714C33.3025 19.867 33.2923 19.875 33.2504 19.8835C33.2092 19.8918 33.1481 19.8984 33.0625 19.8984V20.8984C33.3156 20.8984 33.589 20.8629 33.8142 20.7262C34.0797 20.565 34.2188 20.2994 34.2188 20H33.2188ZM33.0625 19.8984H32.2188V20.8984H33.0625V19.8984ZM32.1906 19.8992C31.0565 19.9631 28.9579 20.2163 25.9133 20.6535L26.0554 21.6434C29.1046 21.2055 31.1622 20.9588 32.2469 20.8976L32.1906 19.8992ZM25.4844 21.1426L25.4375 25.1504L26.4375 25.1621L26.4843 21.1543L25.4844 21.1426ZM25.4375 25.1562C25.4375 25.5217 25.366 25.7045 25.304 25.7867C25.262 25.8423 25.1917 25.8984 25 25.8984V26.8984C25.4333 26.8984 25.8317 26.7475 26.1022 26.3891C26.3527 26.0572 26.4375 25.6189 26.4375 25.1562H25.4375ZM25 25.8984C25.0553 25.8984 25.0838 25.911 25.0658 25.9051C25.0546 25.9013 25.0298 25.8917 24.9884 25.8718C24.9056 25.8319 24.7877 25.766 24.6304 25.6686L24.104 26.5189C24.2748 26.6246 24.4264 26.7111 24.5546 26.7728C24.6186 26.8036 24.6846 26.8321 24.7496 26.8537C24.8078 26.8731 24.8978 26.8984 25 26.8984V25.8984ZM24.5801 25.6413C24.2816 25.5009 23.9785 25.4062 23.6875 25.4062V26.4062C23.7715 26.4062 23.9215 26.4366 24.1543 26.5462L24.5801 25.6413ZM23.6875 25.4062C22.8015 25.4062 22.0284 25.7002 21.3995 26.2922L22.0849 27.0203C22.5184 26.6123 23.0423 26.4062 23.6875 26.4062V25.4062ZM21.41 26.2825C20.5928 27.009 20.1875 27.9611 20.1875 29.0938H21.1875C21.1875 28.2264 21.4854 27.5535 22.0744 27.03L21.41 26.2825ZM20.1875 29.0938C20.1875 30.2495 20.6211 31.2403 21.4705 32.0366L22.1545 31.3071C21.5039 30.6972 21.1875 29.9693 21.1875 29.0938H20.1875ZM21.4589 32.0254C22.3617 32.9282 23.6313 33.3438 25.1875 33.3438V32.3438C23.8062 32.3438 22.8258 31.9781 22.1661 31.3183L21.4589 32.0254ZM25.1875 33.3438C27.2309 33.3438 29.0013 32.6664 30.4714 31.3132L29.7942 30.5774C28.5144 31.7555 26.9879 32.3438 25.1875 32.3438V33.3438ZM30.4864 31.2989C30.7933 30.9919 30.9927 30.9297 31.0938 30.9297V29.9297C30.601 29.9297 30.1598 30.2112 29.7793 30.5918L30.4864 31.2989ZM31.0938 30.9297C31.1491 30.9297 31.1794 30.9434 31.2098 30.97L31.8683 30.2175C31.6488 30.0253 31.3821 29.9297 31.0938 29.9297V30.9297ZM31.2321 30.9884C31.2623 31.0119 31.2658 31.0223 31.2615 31.0147C31.2592 31.0106 31.256 31.0036 31.2535 30.9942C31.2509 30.9846 31.25 30.9758 31.25 30.9688H32.25C32.25 30.6337 32.0728 30.3754 31.846 30.1991L31.2321 30.9884ZM31.25 30.9688C31.25 31.61 30.7804 32.3238 29.4656 33.0643L29.9563 33.9357C31.3602 33.145 32.25 32.1713 32.25 30.9688H31.25ZM29.4767 33.0582C28.2634 33.7014 26.8386 34.0312 25.1875 34.0312V35.0312C26.9739 35.0312 28.5647 34.6736 29.9451 33.9418L29.4767 33.0582ZM25.1875 34.0312C23.5398 34.0312 22.1528 33.5632 20.9998 32.6408L20.3752 33.4217C21.7222 34.4993 23.3352 35.0312 25.1875 35.0312V34.0312ZM21.0288 32.6659C19.9344 31.6434 19.4062 30.4601 19.4062 29.0938H18.4062C18.4062 30.7587 19.0656 32.2003 20.3462 33.3966L21.0288 32.6659ZM19.4062 29.0938C19.4062 28.1084 19.7355 27.2211 20.4137 26.4158L19.6488 25.7717C18.827 26.7476 18.4062 27.8603 18.4062 29.0938H19.4062ZM20.3848 26.4473C21.1484 25.6838 22.3 25.2118 23.9119 25.0924L23.8381 24.0951C22.075 24.2257 20.6641 24.7537 19.6777 25.7402L20.3848 26.4473ZM23.9217 25.0916C24.3337 25.0529 24.6687 24.8382 24.8596 24.4632C25.0304 24.1278 25.0638 23.7082 25.0298 23.2663L24.0327 23.343C24.0612 23.7137 24.0165 23.9152 23.9685 24.0095C23.9482 24.0493 23.9308 24.0636 23.921 24.0701C23.9103 24.0771 23.8848 24.0906 23.8283 24.0959L23.9217 25.0916ZM25.0309 23.2862L24.9606 21.3877L23.9613 21.4248L24.0316 23.3232L25.0309 23.2862ZM24.3856 20.912C22.7426 21.1623 21.4427 21.3782 20.4887 21.5596C19.5595 21.7362 18.9008 21.8897 18.5887 22.0263L18.9895 22.9425C19.1773 22.8603 19.714 22.7247 20.6754 22.542C21.6119 22.364 22.898 22.1502 24.5363 21.9005L24.3856 20.912ZM18.5356 22.0534C18.3169 22.182 18.1629 22.2188 18.0625 22.2188V23.2188C18.3996 23.2188 18.7299 23.0992 19.0426 22.9153L18.5356 22.0534ZM18.0625 22.2188C18.0205 22.2188 17.9108 22.2002 17.711 22.1073C17.5192 22.018 17.2791 21.8766 16.9877 21.6748L16.4185 22.497C16.7365 22.7172 17.0277 22.8922 17.289 23.0138C17.5424 23.1318 17.8076 23.2188 18.0625 23.2188V22.2188ZM17.0065 21.6885C16.7151 21.4661 16.511 21.2947 16.384 21.1711C16.3195 21.1083 16.2872 21.0696 16.2745 21.0519C16.2462 21.0124 16.3125 21.0821 16.3125 21.2188H15.3125C15.3125 21.4179 15.4159 21.5706 15.4618 21.6346C15.5234 21.7204 15.6024 21.8057 15.6863 21.8875C15.8562 22.0529 16.0974 22.2527 16.3998 22.4834L17.0065 21.6885ZM16.3125 21.2188C16.3125 21.1757 16.3153 21.1497 16.3174 21.1369C16.3198 21.1228 16.3196 21.135 16.3066 21.1611C16.2926 21.1892 16.2597 21.2403 16.1953 21.2832C16.1278 21.3283 16.0562 21.3438 16 21.3438V20.3438C15.8813 20.3438 15.7551 20.3749 15.6406 20.4512C15.5293 20.5254 15.4574 20.6233 15.4122 20.7139C15.3287 20.8809 15.3125 21.0682 15.3125 21.2188H16.3125Z" fill="#333333"/>
</svg>

<svg xmlns="http://www.w3.org/2000/svg" width="50" height="50" fill="none"><path fill="#333" d="M16 20.844c.125 0 .344.062.656.187.188.063.477.094.867.094.438 0 .852-.04 1.243-.117l5.648-.89-.07-1.688c0-1.266-.157-2.18-.469-2.742-.125-.11-.188-.196-.188-.258 0-.39.22-.586.657-.586.312 0 .703.078 1.172.234.593.266.89.5.89.703 0 .078-.054.164-.164.258-.14.344-.21.766-.21 1.266l-.024 2.578 4.148-.656c.61-.11 1.11-.22 1.5-.329.266-.078.453-.117.563-.117.203 0 .492.14.867.422.422.36.633.625.633.797 0 .266-.219.398-.657.398h-.843c-1.11.063-3.188.313-6.235.75l-.047 4.008c0 .828-.312 1.242-.937 1.242-.094 0-.305-.101-.633-.304-.265-.125-.492-.188-.68-.188-.765 0-1.414.25-1.945.75-.703.625-1.055 1.438-1.055 2.438 0 1.015.375 1.875 1.125 2.578.782.781 1.907 1.172 3.375 1.172 1.922 0 3.57-.633 4.946-1.899.344-.343.664-.515.96-.515.173 0 .321.054.446.164.14.11.211.234.211.375 0 .922-.68 1.765-2.04 2.531-1.296.688-2.804 1.031-4.523 1.031-1.75 0-3.25-.5-4.5-1.5-1.187-1.11-1.78-2.422-1.78-3.937 0-1.11.374-2.11 1.124-3 .875-.875 2.157-1.375 3.844-1.5.5-.047.719-.477.656-1.29l-.07-1.898c-3.281.5-5.172.86-5.672 1.078-.266.157-.508.235-.727.235-.296 0-.75-.211-1.359-.633-.594-.453-.89-.742-.89-.867 0-.25.062-.375.187-.375Z"/><path fill="#333" d="m16.656 21.031-.185.465.013.005.014.005.158-.475Zm2.11-.023-.078-.494-.01.002-.01.002.098.49Zm5.648-.89.078.493.44-.07-.018-.445-.5.021Zm-.07-1.688h-.5v.02l.5-.02Zm-.469-2.742.437-.243-.042-.076-.066-.058-.329.377Zm1.64-.61.205-.456-.023-.01-.023-.008-.158.474Zm.727.961-.325-.38-.092.079-.046.112.463.19Zm-.21 1.266.5.004v-.004h-.5Zm-.024 2.578-.5-.005-.005.591.583-.092-.078-.494Zm4.148-.656.078.494.01-.002-.088-.492Zm1.5-.329.135.482.006-.002-.14-.48Zm1.43.305.324-.38-.012-.01-.012-.01-.3.4Zm-.867 1.195v-.5h-.014l-.014.001.028.5Zm-6.235.75-.07-.494-.425.06-.005.429.5.005Zm-.047 4.008-.5-.006v.006h.5Zm-1.57.938.263-.425-.024-.015-.026-.013-.213.453Zm-2.625.562.332.374.006-.005.005-.005-.343-.364Zm.07 5.016.354-.354-.006-.005-.006-.006-.341.365Zm8.32-.727.34.368.007-.007.007-.007-.353-.354Zm1.407-.351-.33.376.012.01.011.008.307-.394ZM29.711 33.5l.234.442.011-.006-.245-.436Zm-9.023-.469-.342.366.014.013.015.012.313-.39Zm-.657-6.937-.353-.354-.015.015-.014.017.382.322Zm3.844-1.5.037.498h.01l-.047-.498Zm.656-1.29-.5.02.001.01v.009l.5-.038Zm-.07-1.898.5-.018-.021-.56-.554.084.075.494Zm-5.672 1.078-.2-.458-.028.012-.025.015.253.431Zm-2.086-.398-.303.397.009.007.01.007.284-.411ZM16 21.344c-.007 0 .026 0 .12.027.088.025.203.066.35.125l.372-.929a4.723 4.723 0 0 0-.447-.157 1.48 1.48 0 0 0-.395-.066v1Zm.498.162c.267.089.623.119 1.025.119v-1c-.378 0-.6-.032-.709-.068l-.316.949Zm1.025.119c.468 0 .915-.042 1.34-.127l-.195-.98a5.826 5.826 0 0 1-1.145.107v1Zm1.32-.123 5.649-.89-.156-.989-5.648.89.155.989Zm6.07-1.406-.07-1.687-.999.042.07 1.687 1-.042Zm-.07-1.666c0-1.284-.154-2.306-.53-2.985l-.875.485c.248.446.406 1.252.406 2.5h1Zm-.639-3.119a.792.792 0 0 1-.05-.047l-.015-.017s.01.014.021.04a.37.37 0 0 1 .027.143h-1c0 .188.089.33.143.405.062.085.139.162.216.229l.658-.753Zm-.017.119c0-.053.008-.076.01-.082 0-.002-.003.006-.012.015-.019.017.004-.02.159-.02v-1c-.283 0-.588.063-.825.274-.248.221-.331.525-.331.813h1Zm.157-.086c.237 0 .57.06 1.014.209l.316-.95c-.494-.164-.942-.26-1.33-.26v1Zm.967.19c.282.127.462.232.563.312.05.039.064.06.063.058a.23.23 0 0 1-.03-.123h1c0-.345-.242-.585-.414-.72a3.738 3.738 0 0 0-.773-.44l-.409.913Zm.595.247c0-.08.029-.132.037-.145.008-.012.005-.003-.026.023l.65.76c.134-.115.34-.33.34-.638h-1Zm-.127.069c-.172.42-.248.91-.248 1.455h1c0-.457.065-.81.174-1.077l-.926-.378Zm-.248 1.45-.023 2.578 1 .01.023-2.579-1-.009Zm.555 3.077 4.148-.657-.156-.987-4.148.656.156.988Zm4.159-.658c.617-.111 1.134-.224 1.546-.34l-.27-.962c-.37.103-.852.21-1.453.317l.177.985Zm1.552-.34c.125-.038.225-.063.301-.079.038-.008.067-.013.09-.016l.03-.003v-1c-.19 0-.44.06-.703.138l.282.96Zm.422-.098c-.006 0 .038 0 .15.055.106.052.244.138.417.267l.6-.8a3.662 3.662 0 0 0-.58-.366 1.365 1.365 0 0 0-.587-.156v1Zm.543.303c.2.17.33.302.407.399a.521.521 0 0 1 .06.088c.006.013-.01-.014-.01-.071h1c0-.266-.15-.49-.267-.64a4.076 4.076 0 0 0-.542-.537l-.648.76Zm.457.416c0-.003.001-.03.02-.066a.171.171 0 0 1 .056-.063c.008-.004-.003.004-.045.013a.977.977 0 0 1-.188.014v1c.254 0 .527-.035.752-.172A.826.826 0 0 0 34.22 20h-1Zm-.157-.102h-.843v1h.843v-1Zm-.871.001c-1.135.064-3.233.317-6.278.755l.142.99c3.05-.438 5.107-.685 6.192-.746l-.056-.999Zm-6.707 1.244-.047 4.007 1 .012.047-4.008-1-.011Zm-.047 4.013c0 .366-.071.549-.133.63-.042.056-.112.112-.304.112v1c.433 0 .832-.15 1.102-.509.25-.332.335-.77.335-1.233h-1Zm-.437.742c.055 0 .084.013.066.007a.753.753 0 0 1-.078-.033c-.082-.04-.2-.106-.358-.203l-.526.85c.17.106.322.192.45.254.065.03.13.06.196.08.058.02.148.045.25.045v-1Zm-.42-.257c-.298-.14-.601-.235-.892-.235v1c.084 0 .234.03.466.14l.426-.905Zm-.892-.235c-.886 0-1.66.294-2.288.886l.685.728c.433-.408.957-.614 1.602-.614v-1Zm-2.278.877c-.817.726-1.223 1.678-1.223 2.81h1c0-.867.298-1.54.887-2.063l-.664-.748Zm-1.223 2.81c0 1.157.434 2.147 1.284 2.944l.683-.73c-.65-.61-.966-1.338-.966-2.213h-1Zm1.272 2.932c.903.903 2.172 1.319 3.729 1.319v-1c-1.382 0-2.362-.366-3.022-1.026l-.707.707Zm3.729 1.319c2.043 0 3.813-.678 5.283-2.03l-.677-.737c-1.28 1.178-2.806 1.767-4.607 1.767v1Zm5.298-2.045c.307-.307.507-.37.608-.37v-1c-.493 0-.934.282-1.315.663l.707.707Zm.608-.37c.055 0 .085.014.116.041l.658-.752a1.153 1.153 0 0 0-.774-.288v1Zm.138.06c.03.023.034.033.03.026a.098.098 0 0 1-.012-.046h1c0-.335-.177-.594-.404-.77l-.614.79Zm.018-.02c0 .641-.47 1.355-1.784 2.095l.49.872c1.404-.791 2.294-1.765 2.294-2.967h-1Zm-1.773 2.09c-1.214.642-2.638.972-4.29.972v1c1.787 0 3.378-.357 4.758-1.09l-.468-.883Zm-4.29.972c-1.647 0-3.034-.468-4.187-1.39l-.625.78c1.347 1.078 2.96 1.61 4.813 1.61v-1Zm-4.158-1.365c-1.095-1.023-1.623-2.206-1.623-3.572h-1c0 1.665.66 3.106 1.94 4.303l.683-.731Zm-1.623-3.572c0-.986.33-1.873 1.008-2.678l-.765-.644c-.822.976-1.243 2.088-1.243 3.322h1Zm.979-2.647c.763-.763 1.915-1.235 3.527-1.355l-.074-.997c-1.763.13-3.174.659-4.16 1.645l.707.707Zm3.537-1.355c.412-.04.747-.254.938-.629.17-.335.204-.755.17-1.197l-.997.077c.028.37-.017.572-.065.666a.147.147 0 0 1-.047.061.2.2 0 0 1-.093.026l.094.996Zm1.109-1.806-.07-1.898-1 .037.07 1.898 1-.037Zm-.645-2.374c-1.643.25-2.943.466-3.897.648-.93.176-1.588.33-1.9.466l.4.916c.188-.082.725-.217 1.686-.4.937-.178 2.223-.392 3.861-.642l-.15-.988Zm-5.85 1.141c-.22.129-.373.166-.474.166v1c.338 0 .668-.12.98-.304l-.506-.862Zm-.474.166c-.042 0-.151-.019-.351-.112a5.134 5.134 0 0 1-.723-.432l-.57.822c.319.22.61.395.871.517.253.118.519.205.773.205v-1Zm-1.056-.53a7.279 7.279 0 0 1-.622-.518 1.03 1.03 0 0 1-.11-.12c-.028-.039.038.031.038.168h-1c0 .199.104.352.15.416.061.085.14.17.224.252.17.166.411.366.714.596l.607-.794Zm-.694-.47c0-.043.003-.07.005-.082.003-.014.003-.002-.01.024a.356.356 0 0 1-.307.183v-1a.644.644 0 0 0-.588.37c-.083.167-.1.354-.1.505h1Z"/></svg>
